X: 50
T: No_55_Song_of_Fortynine_Dance_(b).krn
N: Derived from No_55_Song_of_Fortynine_Dance_(b).krn
%%abc-version 2.0
%%abcx-abcm2ps-target-version 5.9.1 (29 Sep 2008)
%%abc-creator hum2abc beta
%%abcx-conversion-date 2019/03/15 08:25:35
%%humdrum-veritas 518436020
%%humdrum-veritas-data 1093841138
%%linebreak <none>
%%barnumbers 0
L: 1/8
M: 3/4
K: G clef=bass
[K:clef=bass][M:3/4]E,4E, z ]|:  
[M:2/4]E,2E,3/E/ | 
E4 | 
ED B,/G,/B, | 
B,4 | 
[M:3/4]B,A, G,/E,/G, G,E, | 
[M:2/4]E,2B,,E, | 
[M:3/4]E,4E, z :|]  
[M:2/4]G,2G,B, | 
B,4 | 
[M:3/4]B,A, G,/E,/G, G,E, | 
E,2B,,B,, E, z | 
[M:2/4]E,E, G,E, | 
E,2B,,B,, | 
[M:3/4]E,4E, z |]  



